**kern	**kern	**dynam
*part1	*part1	*part1
*staff2	*staff1	*
*I"Piano	*	*
*clefF4	*clefG2	*
*k[f#]	*k[f#]	*
=1	=1	=1
8BBBL 8BB	8F#L 8A 8B 8d#X	.
8BBB 8BB	8F# 8A 8B 8d#	.
8BBB 8BB	8F# 8A 8B 8d#	.
8BBBJ 8BB	8F#J 8A 8B 8d#	.
=	=	=
8GGL 8BB	8GL 8B 8d#X	<
8GG 8BB	8G 8B 8d#	.
8GG 8C	8G 8c 8e	.
8GGJ 8C	8GJ 8c 8e	.
=	=	=
8GGL 8D	8GL 8c 8fn	.
8GG 8D	8G 8c 8f	[
8GG 8D	8G 8B 8f	.
8GGJ 8D	8GJ 8B 8f	.
=	=	=
8CCL 8C	8GL 8B 8d 8fn	.
8CC 8C	8G 8B 8d 8f	.
8CC 8C	8G 8c 8e	.
8CCJ 8C	8GJ 8c 8e	.
=	=	=
8AAAL 8AA	8GL 8c 8e	>
8AAA 8AA	8G 8c 8e	.
8AAA#X 8AA#X	8G 8c 8e	.
8AAA#J 8AA#	8GJ 8c 8e	.
=	=	=
4BBB 4BB	4G 4B 4e	] p
4r	4r	.
*	*clefF4	*
=	=	=
*	*^	*
2BBB 2BB	([4c	2D#X 2F# 2A	.
.	8.cL]	.	.
.	16BJk)	.	.
*	*v	*v	*
=	=	=
2EE; 2BB	2E; 2G 2B	.
==	==	==
*-	*-	*-
!!!system-decoration: {(s1,s2)}
